!!!OTL: 637b. Was fang ich an?
!!!ARE: Europa, Mitteleuropa, Deutschland, Schlesien
!!!SCT: E0637A
!!!TXL: @@DE
!!!YEM: Copyright 1995, estate of Helmut Schaffrath.
**kern	**text
*ICvox	*
*M3/4	*
*k[]	*
*C:	*
!LO:TX:a:t=Heiter. (Tanzweise).	!
!LO:TX:a:t=Mel. und Text aus Schleſien. Hoffm. Nr. 66.	!
{8e	1._Ach
8g	den
8cc	ich
=1	=1
8.ee	hätt
16dd	ſo
8cc	gern,
8e	der
8g	iſt
8e	von
=2	=2
8.a	mir
16a	ſo
8g}	fern,
{8c	und
8e	den
8c	ich
=3	=3
8.g	gar
16f	nicht
8g	mag,
8d	den
8f	ſeh
8d	ich
=4	=4
8.a	al-
16a	-le
8g}	Tag.
{8e	2._Ein'n
8g	Schö-
8cc	-nen
=5	=5
8.ee	krieg
16dd	ich
8cc	nicht,
8e	ein'n
8g	Wü-
8e	-ſten
=6	=6
8.a	will
16a	ich
8g}	nicht,
{8c	und
8e	le-
8c	-dig
=7	=7
8.g	bleib
16f	ich
8g	nicht,
8dd	was
8ff	fang
8b	ich
=8	=8
4cc	an?
8r}	.
==	==
!!!AGN: Liebes - Lied
!!!ONB: ESAC (Essen Associative Code) Database: ERK2
!!!AMT: simple triple
!!!AIN: vox
!!!EED: Helmut Schaffrath
!!!EEV: 1.0
!!!GTL: Liebeslieder [Neuere (aus dem 18. bis 19. Jahrh.) - Liebeslust]
!!!URL-scan: https://rosdok.uni-rostock.de/mcrviewer/recordIdentifier/rosdok_ppn745177662/iview2/phys_0450.iview2?x=193.8995864193107&y=178.72331798705272&scale=0.7029437510502773&rotation=0&layout=singlePageLayout
!!!ENC: Anna Maria Matuszewska
!!!EEV: 2024/12/12
*-	*-
